dist/svgs/crypto-icons/icons/msc.svg

<?xml version="1.0" encoding="UTF-8" standalone="yes"?>
<svg xmlns="http://www.w3.org/2000/svg" xmlns:xlink="http://www.w3.org/1999/xlink" width="512px" height="512px" viewBox="0 0 384 384" version="1.1">
  <g id="surface1">
    <path style=" stroke:none;fill-rule:nonzero;fill:rgb(0%,0%,0%);fill-opacity:1;" d="M 171.402344 143.007812 L 132.898438 57.296875 L -0.0507812 313.882812 L 96.601562 292.8125 C 89.960938 278.953125 86.234375 263.429688 86.234375 247.035156 C 86.234375 195.605469 122.832031 152.730469 171.402344 143.007812 Z M 383.621094 313.882812 L 254.648438 57.296875 L 214.257812 143.210938 C 262.339844 153.308594 298.445312 195.949219 298.445312 247.035156 C 298.445312 263.515625 294.683594 279.117188 287.984375 293.03125 Z M 383.621094 313.882812 "/>
    <path style=" stroke:none;fill-rule:nonzero;fill:rgb(0%,0%,0%);fill-opacity:1;" d="M 266.445312 247.03125 C 266.445312 206.105469 233.269531 172.925781 192.339844 172.925781 C 151.410156 172.925781 118.234375 206.105469 118.234375 247.03125 C 118.234375 287.960938 151.410156 321.140625 192.339844 321.140625 C 233.269531 321.140625 266.445312 287.960938 266.445312 247.03125 Z M 266.445312 247.03125 "/>
  </g>
</svg>

<svg xmlns="http://www.w3.org/2000/svg" viewBox="0 0 384 384"><path d="M171.402 143.008l-38.504-85.711L-.05 313.883l96.653-21.07c-6.641-13.86-10.368-29.383-10.368-45.778 0-51.43 36.598-94.305 85.168-104.027zm212.22 170.875L254.647 57.297l-40.39 85.914c48.082 10.098 84.187 52.738 84.187 103.824 0 16.48-3.761 32.082-10.46 45.996zm0 0"/><path d="M266.445 247.031c0-40.926-33.175-74.105-74.105-74.105-40.93 0-74.106 33.18-74.106 74.105 0 40.93 33.176 74.11 74.106 74.11 40.93 0 74.105-33.18 74.105-74.11zm0 0"/></svg>
